packages/ui-icons/src/Service-logos/24/START.svg

<svg viewBox="0 0 32 32" fill="none" xmlns="http://www.w3.org/2000/svg">
<path d="M16 28C22.6274 28 28 22.6274 28 16C28 9.37258 22.6274 4 16 4C9.37258 4 4 9.37258 4 16C4 22.6274 9.37258 28 16 28Z" fill="#1F252E"/>
<path d="M9.45627 12.5C8.46336 12.5 8 13.0051 8 13.7926V14.7063C8 15.5236 8.16294 15.8726 8.81979 16.2422L9.32643 16.5246C9.73632 16.7473 9.78979 16.9126 9.78979 17.3901V18.196C9.78979 18.4301 9.67013 18.5748 9.44354 18.5748C9.21695 18.5748 9.09729 18.4393 9.09729 18.196V16.931H8V18.2052C8 19.0018 8.45317 19.4977 9.43336 19.4977C10.4466 19.4977 10.91 18.972 10.91 18.2052V17.2133C10.91 16.4557 10.6936 16.0654 10.0698 15.7073L9.5632 15.4157C9.20677 15.2114 9.12021 15.0667 9.12021 14.541V13.8017C9.12021 13.5676 9.23987 13.4229 9.45372 13.4229C9.68031 13.4229 9.81015 13.5699 9.81015 13.8017V15.0553H10.91V13.7926C10.91 13.0143 10.4466 12.5 9.45627 12.5Z" fill="#E93F27"/>
<path d="M11.2562 13.57H12.0327V19.4037H13.1529V13.57H13.9295V12.5966H11.2562V13.57Z" fill="#E93F27"/>
<path d="M21.2617 12.5966V13.57H22.0383V19.4037H23.1585V13.57H23.935V12.5966H21.2617Z" fill="#E93F27"/>
<path d="M14.6194 12.5966L13.9931 19.4014H15.1031L15.2559 17.5831H16.0706L16.2233 19.4014H17.3563L16.7325 12.5966H14.6194ZM15.3348 16.6602L15.5996 13.5195H15.732L15.9968 16.6602H15.3348Z" fill="#E93F27"/>
<path d="M20.8518 18.8872V17.1171C20.8518 16.5523 20.6151 16.2423 20.0422 16.1344V16.0174C20.6125 15.9393 20.9053 15.5605 20.9053 14.9475V13.7927C20.9053 13.0443 20.4089 12.5966 19.449 12.5966H17.9291V19.4014H19.0493V16.5546H19.7291V18.8872C19.7291 19.2752 19.9124 19.4014 19.9124 19.4014H21.0326C21.0351 19.4037 20.8518 19.2774 20.8518 18.8872ZM19.7851 14.998C19.7851 15.4847 19.6654 15.6294 19.2988 15.6294H19.0519V13.5218H19.3421C19.6883 13.5218 19.7851 13.6481 19.7851 14.1531V14.998Z" fill="#E93F27"/>
</svg>

<svg viewBox="0 0 32 32" fill="none" xmlns="http://www.w3.org/2000/svg"><path d="M16 28c6.627 0 12-5.373 12-12S22.627 4 16 4 4 9.373 4 16s5.373 12 12 12Z" fill="#1F252E"/><path d="M9.456 12.5C8.463 12.5 8 13.005 8 13.793v.913c0 .818.163 1.167.82 1.536l.506.283c.41.222.464.388.464.865v.806c0 .234-.12.379-.346.379-.227 0-.347-.136-.347-.379v-1.265H8v1.274c0 .797.453 1.293 1.433 1.293 1.014 0 1.477-.526 1.477-1.293v-.992c0-.757-.216-1.148-.84-1.506l-.507-.291c-.356-.205-.443-.35-.443-.875v-.74c0-.233.12-.378.334-.378.226 0 .356.147.356.379v1.253h1.1v-1.262c0-.779-.463-1.293-1.454-1.293ZM11.256 13.57h.777v5.834h1.12V13.57h.777v-.973h-2.674v.973ZM21.262 12.597v.973h.776v5.834h1.12V13.57h.777v-.973h-2.673ZM14.62 12.597l-.627 6.804h1.11l.153-1.818h.815l.152 1.818h1.133l-.623-6.804h-2.114Zm.715 4.063.265-3.14h.132l.265 3.14h-.662ZM20.852 18.887v-1.77c0-.565-.237-.875-.81-.983v-.117c.57-.078.863-.457.863-1.07v-1.154c0-.749-.496-1.196-1.456-1.196h-1.52V19.4h1.12v-2.846h.68v2.332c0 .388.183.514.183.514h1.12c.003.003-.18-.124-.18-.514Zm-1.067-3.889c0 .487-.12.631-.486.631h-.247v-2.107h.29c.346 0 .443.126.443.631v.845Z" fill="#E93F27"/></svg>
